img/subtract-18.svg

<svg fill="none" height="24" viewBox="0 0 33 24" width="33" xmlns="http://www.w3.org/2000/svg"><path clip-rule="evenodd" d="m29.2368 1.5081c1.3785.368 2.4538 1.44543 2.8266 2.82135.9749 3.92536.9114 11.34675.0205 15.33345-.3687 1.3759-1.4482 2.4492-2.8266 2.8213-3.8917.9609-21.32231.8423-24.98868 0-1.37847-.368-2.4538-1.4454-2.82659-2.8213-.919661-3.7414-.856164-11.65342-.02048-15.313.36869-1.37592 1.44811-2.44926 2.82659-2.82135 5.20255-1.083565 23.13706-.733963 24.98866-.02045zm-15.5669 5.70446 8.3569 4.78404-8.3569 4.784z" fill="#fff" fill-rule="evenodd"/></svg>

<svg width="33" height="24" viewBox="0 0 33 24" fill="none" xmlns="http://www.w3.org/2000/svg">
<path fill-rule="evenodd" clip-rule="evenodd" d="M29.2368 1.5081C30.6153 1.8761 31.6906 2.95353 32.0634 4.32945C33.0383 8.25481 32.9748 15.6762 32.0839 19.6629C31.7152 21.0388 30.6357 22.1121 29.2573 22.4842C25.3656 23.4451 7.93499 23.3265 4.26862 22.4842C2.89015 22.1162 1.81482 21.0388 1.44203 19.6629C0.522369 15.9215 0.585866 8.00948 1.42155 4.3499C1.79024 2.97398 2.86966 1.90064 4.24814 1.52855C9.45069 0.444985 27.3852 0.794587 29.2368 1.5081ZM13.6699 7.21256L22.0268 11.9966L13.6699 16.7806V7.21256Z" fill="white"/>
</svg>
